icons/src/scalable/default/categories/preferences-desktop-remote-desktop-symbolic.svg

<?xml version="1.0" encoding="UTF-8" standalone="no"?>
<svg
   xmlns:dc="http://purl.org/dc/elements/1.1/"
   xmlns:cc="http://creativecommons.org/ns#"
   xmlns:rdf="http://www.w3.org/1999/02/22-rdf-syntax-ns#"
   xmlns:svg="http://www.w3.org/2000/svg"
   xmlns="http://www.w3.org/2000/svg"
   xmlns:sodipodi="http://sodipodi.sourceforge.net/DTD/sodipodi-0.dtd"
   xmlns:inkscape="http://www.inkscape.org/namespaces/inkscape"
   viewBox="0 0 16 16"
   version="1.1"
   id="svg10"
   sodipodi:docname="computer-symbolic.svg"
   inkscape:version="1.0.2 (e86c870879, 2021-01-15)">
  <metadata
     id="metadata16">
    <rdf:RDF>
      <cc:Work
         rdf:about="">
        <dc:format>image/svg+xml</dc:format>
        <dc:type
           rdf:resource="http://purl.org/dc/dcmitype/StillImage" />
      </cc:Work>
    </rdf:RDF>
  </metadata>
  <defs
     id="defs14" />
  <sodipodi:namedview
     pagecolor="#ffffff"
     bordercolor="#666666"
     borderopacity="1"
     objecttolerance="10"
     gridtolerance="10"
     guidetolerance="10"
     inkscape:pageopacity="0"
     inkscape:pageshadow="2"
     inkscape:window-width="1920"
     inkscape:window-height="1016"
     id="namedview12"
     showgrid="true"
     inkscape:zoom="55"
     inkscape:cx="8.0748345"
     inkscape:cy="6.755589"
     inkscape:window-x="0"
     inkscape:window-y="27"
     inkscape:window-maximized="1"
     inkscape:current-layer="svg10">
    <inkscape:grid
       type="xygrid"
       id="grid841" />
  </sodipodi:namedview>
  <g
     transform="translate(-312 -120)"
     fill="#363636"
     id="g8">
    <path
       d="M315.994 120c-1.258.015-2.179-.03-2.932.385a1.88 1.88 0 0 0-.837.998c-.165.438-.225.96-.225 1.617v6c0 .658.06 1.179.225 1.617.164.439.461.79.837.998.753.416 1.674.37 2.932.385H324.006c1.258-.015 2.179.03 2.932-.385a1.88 1.88 0 0 0 .838-.998c.164-.438.224-.96.224-1.617v-6c0-.658-.06-1.179-.225-1.617a1.88 1.88 0 0 0-.837-.998c-.753-.416-1.674-.37-2.932-.385h-8.008zm.006 1h8c1.259.015 2.087.06 2.453.262.184.1.29.212.387.472.097.26.16.674.16 1.266v6c0 .592-.063 1.006-.16 1.266-.098.26-.203.371-.387.472-.366.202-1.194.247-2.453.262h-8c-1.259-.015-2.09-.06-2.455-.262-.183-.1-.287-.212-.385-.472-.097-.26-.16-.674-.16-1.266v-6c0-.592.063-1.006.16-1.266.098-.26.202-.371.385-.472.366-.202 1.196-.247 2.455-.262z"
       font-family="sans-serif"
       font-weight="400"
       overflow="visible"
       style="font-feature-settings:normal;font-variant-alternates:normal;font-variant-caps:normal;font-variant-ligatures:normal;font-variant-numeric:normal;font-variant-position:normal;isolation:auto;mix-blend-mode:normal;shape-padding:0;text-decoration-color:#000;text-decoration-line:none;text-decoration-style:solid;text-indent:0;text-orientation:mixed;text-transform:none"
       white-space="normal"
       id="path2" />
    <rect
       x="318"
       y="132"
       width="4"
       height="1"
       id="rect4" />
    <path
       d="m312 135 3-1h10l3 1v1h-16z"
       id="path6" />
  </g>
  <path
     style="color:#bebebe;fill:#363636;fill-opacity:1;marker:none"
     d="m 11.5,3.002 c 0,0 -0.5,0 -0.5,0.5 v 0.984 c 0,0 0,0.5 0.5,0.5 l 1,0.001 c 0,0 0.5,0 0.5,-0.5 v -0.984 c 0,0 0,-0.5 -0.5,-0.5 z"
     id="path858" />
  <path
     id="path4"
     style="color:#bebebe;fill:#363636;fill-opacity:1;marker:none"
     d="M 3.5 3.0019531 C 3.5 3.0019531 3 3.0019531 3 3.5019531 L 3 8.5019531 C 3 9.0019531 3.5 9.0019531 3.5 9.0019531 L 8.5 9.0019531 C 9 9.0019531 9 8.5019531 9 8.5019531 L 9 3.5019531 C 9 3.0019531 8.563 3.0019531 8.5 3.0019531 L 3.5 3.0019531 z M 4 4.9980469 L 8 4.9980469 L 8 8 L 4 8 L 4 4.9980469 z " />
  <path
     style="color:#bebebe;fill:#363636;fill-opacity:1;marker:none"
     d="m 11.5,6 c 0,0 -0.5,0 -0.5,0.5 v 0.984 c 0,0 0,0.5 0.5,0.5 l 1,0.001 c 0,0 0.5,0 0.5,-0.5 v -0.984 c 0,0 0,-0.5 -0.5,-0.5 z"
     id="path861" />
</svg>

<svg version="1.1" viewBox="0 0 16 16" xmlns="http://www.w3.org/2000/svg">
 <g fill="#363636">
  <g transform="translate(-312 -120)">
   <path d="M315.994 120c-1.258.015-2.179-.03-2.932.385a1.88 1.88 0 0 0-.837.998c-.165.438-.225.96-.225 1.617v6c0 .658.06 1.179.225 1.617.164.439.461.79.837.998.753.416 1.674.37 2.932.385H324.006c1.258-.015 2.179.03 2.932-.385a1.88 1.88 0 0 0 .838-.998c.164-.438.224-.96.224-1.617v-6c0-.658-.06-1.179-.225-1.617a1.88 1.88 0 0 0-.837-.998c-.753-.416-1.674-.37-2.932-.385h-8.008zm.006 1h8c1.259.015 2.087.06 2.453.262.184.1.29.212.387.472.097.26.16.674.16 1.266v6c0 .592-.063 1.006-.16 1.266-.098.26-.203.371-.387.472-.366.202-1.194.247-2.453.262h-8c-1.259-.015-2.09-.06-2.455-.262-.183-.1-.287-.212-.385-.472-.097-.26-.16-.674-.16-1.266v-6c0-.592.063-1.006.16-1.266.098-.26.202-.371.385-.472.366-.202 1.196-.247 2.455-.262z" font-family="sans-serif" font-weight="400" overflow="visible" style="font-feature-settings:normal;font-variant-alternates:normal;font-variant-caps:normal;font-variant-ligatures:normal;font-variant-numeric:normal;font-variant-position:normal;isolation:auto;mix-blend-mode:normal;shape-padding:0;text-decoration-color:#000;text-decoration-line:none;text-decoration-style:solid;text-indent:0;text-orientation:mixed;text-transform:none" white-space="normal"/>
   <rect x="318" y="132" width="4" height="1"/>
   <path d="m312 135 3-1h10l3 1v1h-16z"/>
  </g>
  <g>
   <path d="m11.5 3.002s-0.5 0-0.5 0.5v0.984s0 0.5 0.5 0.5l1 1e-3s0.5 0 0.5-0.5v-0.984s0-0.5-0.5-0.5z" color="#bebebe"/>
   <path d="m3.5 3.002s-0.5 0-0.5 0.5v5c0 0.5 0.5 0.5 0.5 0.5h5c0.5 0 0.5-0.5 0.5-0.5v-5c0-0.5-0.437-0.5-0.5-0.5h-5zm0.5 1.9961h4v3.002h-4v-3.002z" color="#bebebe"/>
   <path d="m11.5 6s-0.5 0-0.5 0.5v0.984s0 0.5 0.5 0.5l1 1e-3s0.5 0 0.5-0.5v-0.984s0-0.5-0.5-0.5z" color="#bebebe"/>
  </g>
 </g>
</svg>
